X:1
T:When the Burden Bearer Came
T:When the Burden Bearer Came
T:William Howard Doane
T:Frances Jane (Fanny) Crosby, 1899
T:Public Domain Courtesy of the Cyber Hymnal™
T:Public Domain Courtesy of the Cyber Hymnal™
C:William Howard Doane
Z:Public Domain
Z:Courtesy of the Cyber Hymnal™
%%score ( 1 2 ) ( 3 4 )
L:1/8
Q:1/4=115
M:9/8
K:F
V:1 treble 
V:2 treble 
V:3 bass 
V:4 bass 
V:1
 (CF)[CG] | [FA]3 [FA]3 (BA)[F^G] | [FA]3 [FA]3 (cd)[Fc] | [Fc]3 [FA]3 ([GB][FA])[EG] | %4
w: 1.~On * a|de- sert wild * and|lone- ly, Where * no|hope I dared * to|
w: 2.~On * a|de- sert wild * and|lone- ly, How * He|gent- ly said * to|
w: 3.~Praise * to|Him whose grace * re-|deemed me, From * the|death that ne- * ver|
 F3- F2 z (CF)[CG] | [FA]3 [FA]3 (AB)[Fc] | [Fd]3 [Fc]3 ([Ac][Bd])[Ac] | [Ge]3 [Ge]3 (dA)[F=B] | %8
w: claim, * I * was|trou- bled, sad * and|lone- ly, When * the|Bur- den Bear- * er|
w: me, * “I * have|pur- chased thy * sal-|va- tion, I * have|borne the cross * for|
w: dies; * I * shall|tell the bless- * èd|sto- ry, When * I|meet Him in * the|
 [Ec]6 ||[M:12/8]"^Refrain" ([Ac][Bd])[Ac] | [Af]6- [Af]2 [Fc] [Fe]2 [Fd] | %11
w: came.|||
w: thee.”|Christ * the|Bur- * den Bear- rer|
w: skies.|||
 c6- [Fc]3 ([Ac][Bd])[Ac] | [Ge]6- [Ge]2 [Gf] [Fd]2 [Ge] | c6 [Gc]3 ([FA][GB])[^G=B] | %14
w: |||
w: came, Hal- le- * lu-|* * jah to His|name! All my * sins|
w: |||
 [Ac]2 [Ac] ([FA][GB])[^G=B] [Ac]3 | (cd)[Be] | [Af]2 [Af] (cd)[Be] [Af]3 [Fe]2 [Fd] | %17
w: |||
w: * He rolled * a- way,|Now * re-|joic- ing ev- * ery day, I am|
w: |||
 [Fc]2 [Fc] [Gc]2 [Gd] [Fc]2 [FA] [EG]2 [EA] | F6- F3 |] %19
w: ||
w: trust- ing in the Sav- ior’s pre- cious|love. *|
w: ||
V:2
 C2 x | x6 F2 x | x6 F2 x | x9 | F3- F2 C2 x2 | x6 F2 x | x9 | x6 F2 x | x6 ||[M:12/8] x3 | x12 | %11
 F3 E3 x6 | x12 | E3 F3 x6 | x9 | F2 x | x3 F2 x7 | x12 | F6- F3 |] %19
V:3
 [F,A,]2 [F,B,] | [F,C]3 [F,C]3 (DC)[F,=B,] | [F,C]3 [F,C]3 (A,B,)[F,A,] | %3
w: ~ ~|~ ~ ~ * ~|~ ~ ~ * ~|
 [F,A,]3 [F,C]3 [C,C]2 [C,B,] | [F,A,]3- [F,A,]2 z [F,A,]2 [F,B,] | [F,C]3 [F,C]3 (CG,)[F,A,] | %6
w: ~ ~ ~ ~|~ * ~ ~|~ ~ ~ * ~|
 [B,,B,]3 [F,A,]3 [F,C]2 [F,C] | [G,C]3 [G,C]3 (=B,C)[G,,D] | [C,C]6 ||[M:12/8] z3 | %10
w: ~ ~ ~ ~|~ ~ ~ * ~|~||
 [F,C]2 [F,C] [F,C]2 [F,C] [F,C]2 [A,C] [B,C]2 [B,,B,] | [F,A,]2 [F,A,] [C,G,]2 [C,G,] [F,A,]3 z3 | %12
w: Christ the Bur- den Bear- er, Christ the|Bur- den Bear- er came,|
 [G,C]2 [G,C] [G,C]2 [G,C] [G,C]2 [G,D] [G,=B,]2 [G,,B,] | [C,C]3 [C,A,]3 [C,B,]3 [F,C]2 [F,D] | %14
w: Hal- le- lu- jah ev- er to His|pre- cious name! * *|
 [F,C]2 [F,C] [F,C]2 [F,D] [F,C]3 | ([A,C] B,)[G,C] | %16
w: ||
 [F,C]2 [F,C] ([A,C] B,)[G,C] [F,C]3 [B,,C]2 [B,,B,] | %17
w: |
 [C,A,]2 [C,A,] [C,A,]2 [C,B,] [C,A,]2 [C,C] [C,B,]2 [C,B,] | [F,A,]6- [F,A,]3 |] %19
w: ||
V:4
 x3 | x6 F,2 x | x6 F,2 x | x9 | x9 | x6 F,2 x | x9 | x6 G,2 x | x6 ||[M:12/8] x3 | x12 | x12 | %12
 x12 | x12 | x9 | x B, x | x4 B, x7 | x12 | x9 |] %19

